src/actions/24/gnumeric-pagesetup-hf-pages.svg

<svg xmlns="http://www.w3.org/2000/svg" viewBox="0 0 24 24">
    <defs>
        <style id="current-color-scheme" type="text/css">
            .ColorScheme-Text{color:#050505;opacity:.7}
        </style>
    </defs>
    <path d="M11 3h3l4 4v4h-1V8h-4V4h-2V3Zm-6 8v7h6v1H4v-8h1ZM13 12v1h-1v1h1v3h-1v1h1v1h1v-1h3v1h1v-1h1v-1h-1v-3h1v-1h-1v-1h-1v1h-3v-1h-1Zm1 2h3v3h-3v-3ZM4 3v1H3v1h1v3H3v1h1v1h1V9h3v1h1V9h1V8H9V5h1V4H9V3H8v1H5V3H4Zm1 2h3v3H5V5Z" class="ColorScheme-Text" style="fill:currentColor;fill-opacity:1;stroke:none" transform="translate(1 1)"/>
</svg>

<!DOCTYPE svg>
<svg viewBox="0 0 24 24" version="1.1" xmlns="http://www.w3.org/2000/svg">
    <defs>
        <style type="text/css" id="current-color-scheme">
            .ColorScheme-Text {
                color:#363636;
            }
        </style>
    </defs><g transform="translate(1,1)">
    <path class="ColorScheme-Text" style="fill:currentColor; fill-opacity:1; stroke:none" d="M 11 3 L 14 3 L 18 7 L 18 11 L 17 11 L 17 8 L 13 8 L 13 4 L 11 4 L 11 3 Z M 5 11 L 5 18 L 11 18 L 11 19 L 4 19 L 4 11 L 5 11 Z"/>
    <path class="ColorScheme-Text" style="fill:currentColor; fill-opacity:1; stroke:none" d="M 13 12 L 13 13 L 12 13 L 12 14 L 13 14 L 13 17 L 12 17 L 12 18 L 13 18 L 13 19 L 14 19 L 14 18 L 17 18 L 17 19 L 18 19 L 18 18 L 19 18 L 19 17 L 18 17 L 18 14 L 19 14 L 19 13 L 18 13 L 18 12 L 17 12 L 17 13 L 14 13 L 14 12 L 13 12 Z M 14 14 L 17 14 L 17 17 L 14 17 L 14 14 Z"/>
    <path class="ColorScheme-Text" style="fill:currentColor; fill-opacity:1; stroke:none" d="M 4 3 L 4 4 L 3 4 L 3 5 L 4 5 L 4 8 L 3 8 L 3 9 L 4 9 L 4 10 L 5 10 L 5 9 L 8 9 L 8 10 L 9 10 L 9 9 L 10 9 L 10 8 L 9 8 L 9 5 L 10 5 L 10 4 L 9 4 L 9 3 L 8 3 L 8 4 L 5 4 L 5 3 L 4 3 Z M 5 5 L 8 5 L 8 8 L 5 8 L 5 5 Z"/>
</g></svg>
